assets/icons/librescoot-internet-modem-off.svg

<svg xmlns="http://www.w3.org/2000/svg" width="144" height="144" fill="none" viewBox="0 0 144 144"><g clip-path="url(#a)"><path fill="#fff" d="M33.6 123h76.5L71.85 84.75zm93.15 16.65L119.1 132H12l53.55-53.55-49.2-49.2 6.45-6.45 110.4 110.4zM132 119.1l-9-9V33.6L84.75 71.85l-6.3-6.3L132 12z"/></g><defs><clipPath id="a"><path fill="#fff" d="M0 0h144v144H0z"/></clipPath></defs></svg>

<svg width="144" height="144" viewBox="0 0 144 144" fill="none" xmlns="http://www.w3.org/2000/svg">
    <g clip-path="url(#clip0_400_400)">
        <g>
            <path d="M33.6 123H110.1L71.85 84.75L33.6 123ZM126.75 139.65L119.1 132H12L65.55 78.45L16.35 29.25L22.8 22.8L133.2 133.2L126.75 139.65ZM132 119.1L123 110.1V33.6L84.75 71.85L78.45 65.55L132 12V119.1Z" fill="white"/>
        </g>
    </g>
    <defs>
        <clipPath id="clip0_400_400">
            <rect width="144" height="144" fill="white"/>
        </clipPath>
    </defs>
</svg>
